img/icon/search.svg

<svg width="16" height="17" viewBox="0 0 16 17" fill="none" xmlns="http://www.w3.org/2000/svg">
<path d="M15.7812 13.8438L12.6562 10.7188C12.5 10.5938 12.3125 10.5 12.125 10.5H11.625C12.4688 9.40625 13 8.03125 13 6.5C13 2.9375 10.0625 0 6.5 0C2.90625 0 0 2.9375 0 6.5C0 10.0938 2.90625 13 6.5 13C8 13 9.375 12.5 10.5 11.625V12.1562C10.5 12.3438 10.5625 12.5312 10.7188 12.6875L13.8125 15.7812C14.125 16.0938 14.5938 16.0938 14.875 15.7812L15.75 14.9062C16.0625 14.625 16.0625 14.1562 15.7812 13.8438ZM6.5 10.5C4.28125 10.5 2.5 8.71875 2.5 6.5C2.5 4.3125 4.28125 2.5 6.5 2.5C8.6875 2.5 10.5 4.3125 10.5 6.5C10.5 8.71875 8.6875 10.5 6.5 10.5Z" fill="#959EAD"/>
</svg>

<svg width="16" height="17" fill="none" xmlns="http://www.w3.org/2000/svg"><path d="m15.781 13.844-3.125-3.125c-.156-.125-.344-.219-.531-.219h-.5A6.516 6.516 0 0 0 13 6.5C13 2.937 10.062 0 6.5 0 2.906 0 0 2.938 0 6.5 0 10.094 2.906 13 6.5 13c1.5 0 2.875-.5 4-1.375v.531c0 .188.063.375.219.531l3.094 3.094c.312.313.78.313 1.062 0l.875-.875c.313-.281.313-.75.031-1.062zM6.5 10.5c-2.219 0-4-1.781-4-4 0-2.188 1.781-4 4-4 2.188 0 4 1.813 4 4 0 2.219-1.813 4-4 4z" fill="#959EAD"/></svg>
